icons/4_Outdated/Origin.svg

<svg xmlns="http://www.w3.org/2000/svg" width="1024" height="1024" fill="none">
   <g clip-path="url(#a)">
      <path fill="#F8C18C" d="M512 1024c282.77 0 512-229.23 512-512S794.77 0 512 0 0 229.23 0 512s229.23 512 512 512Z"/>
      <path fill="#fff" d="M524.55 322.339a188.785 188.785 0 0 1 130.63 64.28 194.407 194.407 0 0 1 36.59 63.21 184.53 184.53 0 0 1 9.9 74.71 175.41 175.41 0 0 1-6.53 39.46 195.675 195.675 0 0 1-14.38 36.33 425.71 425.71 0 0 1-31.36 51.46 375.594 375.594 0 0 1-37.59 45.19 396.915 396.915 0 0 1-43.35 38.44 426.74 426.74 0 0 1-48.09 31.55l-.79.55a4.178 4.178 0 0 1-2.33.49 6.252 6.252 0 0 1-3.39-2.07 5.676 5.676 0 0 1-1.32-3.69 6.303 6.303 0 0 1 .26-1.81c.176-.487.444-.935.79-1.32a139.146 139.146 0 0 0 14.64-26.35 115.6 115.6 0 0 0 7.85-29 2.512 2.512 0 0 0-.81-1.81 2.38 2.38 0 0 0-1.81-.81c-5.63.68-11.26 1.13-17 1.32a104.995 104.995 0 0 1-17-.79 188.417 188.417 0 0 1-71.773-19.015 188.423 188.423 0 0 1-58.857-45.265 193.88 193.88 0 0 1-36.59-63.21 184.814 184.814 0 0 1-9.92-74.71 175.452 175.452 0 0 1 6.57-39.48 183.42 183.42 0 0 1 14.4-35.84 416.066 416.066 0 0 1 31.34-52 384.715 384.715 0 0 1 37.57-45.16 401.16 401.16 0 0 1 43.37-38.4 419.933 419.933 0 0 1 48.07-31.55l.81-.53a4 4 0 0 1 2.33-.53 6.303 6.303 0 0 1 3.37 2.09 5.44 5.44 0 0 1 1.32 3.71 5.225 5.225 0 0 1-.26 1.79 3.505 3.505 0 0 1-.77 1.3 137.568 137.568 0 0 0-14.66 26.39 116.305 116.305 0 0 0-7.81 29 2.659 2.659 0 0 0 2.58 2.62 174.183 174.183 0 0 1 17-1.3c5.678-.19 11.361.061 17 .75Zm-17.22 263.84a70.841 70.841 0 0 0 53.78-18.24c15.36-13.63 23.66-30.68 25.09-51.2a71.617 71.617 0 0 0-18.26-54.08 70.257 70.257 0 0 0-51.2-24.79 71.661 71.661 0 0 0-54.06 18.24 70.383 70.383 0 0 0-24.83 51.2 72.124 72.124 0 0 0 18 54.08c13.44 15.46 30.59 23.78 51.48 24.79Z"/>
   </g>
   <defs>
      <clipPath id="a">
         <path fill="#fff" d="M0 0h1024v1024H0z"/>
      </clipPath>
   </defs>
</svg>

<svg width="1024" height="1024" viewBox="0 0 1024 1024" fill="none" xmlns="http://www.w3.org/2000/svg">
<g clip-path="url(#clip0_3_617)">
<path d="M512 1024C794.77 1024 1024 794.77 1024 512C1024 229.23 794.77 0 512 0C229.23 0 0 229.23 0 512C0 794.77 229.23 1024 512 1024Z" fill="#F8C18C"/>
<path d="M524.55 322.339C549.495 323.874 573.887 330.346 596.311 341.381C618.735 352.415 638.745 367.792 655.18 386.619C671.261 405.188 683.676 426.637 691.77 449.829C700.174 473.786 703.545 499.22 701.67 524.539C701.005 537.898 698.814 551.138 695.14 563.999C691.571 576.559 686.753 588.729 680.76 600.329C671.535 618.202 661.056 635.398 649.4 651.789C638.07 667.811 625.501 682.921 611.81 696.979C598.316 710.831 583.827 723.679 568.46 735.419C553.158 747.005 537.091 757.546 520.37 766.969L519.58 767.519C518.867 767.905 518.058 768.075 517.25 768.009C515.925 767.706 514.735 766.979 513.86 765.939C512.996 764.905 512.528 763.597 512.54 762.249C512.538 761.636 512.626 761.027 512.8 760.439C512.976 759.952 513.244 759.504 513.59 759.119C519.41 750.892 524.318 742.057 528.23 732.769C532.097 723.485 534.736 713.736 536.08 703.769C536.075 703.428 536 703.092 535.861 702.781C535.721 702.47 535.52 702.19 535.27 701.959C535.045 701.702 534.766 701.496 534.454 701.356C534.141 701.216 533.802 701.146 533.46 701.149C527.83 701.829 522.2 702.279 516.46 702.469C510.781 702.666 505.096 702.402 499.46 701.679C474.511 700.164 450.113 693.7 427.687 682.664C405.26 671.629 385.253 656.242 368.83 637.399C352.739 618.837 340.322 597.387 332.24 574.189C323.837 550.232 320.46 524.8 322.32 499.479C322.997 486.112 325.201 472.866 328.89 459.999C332.415 447.579 337.242 435.566 343.29 424.159C352.456 406.086 362.931 388.706 374.63 372.159C385.984 356.17 398.544 341.073 412.2 326.999C425.712 313.171 440.207 300.337 455.57 288.599C470.854 276.996 486.915 266.455 503.64 257.049L504.45 256.519C505.155 256.109 505.968 255.924 506.78 255.989C508.099 256.305 509.281 257.038 510.15 258.079C511.038 259.108 511.509 260.431 511.47 261.789C511.488 262.397 511.4 263.002 511.21 263.579C511.051 264.063 510.788 264.507 510.44 264.879C504.6 273.111 499.684 281.961 495.78 291.269C491.934 300.558 489.309 310.306 487.97 320.269C487.98 320.954 488.254 321.609 488.734 322.097C489.215 322.585 489.865 322.869 490.55 322.889C496.137 322.183 501.803 321.749 507.55 321.589C513.228 321.399 518.911 321.65 524.55 322.339ZM507.33 586.179C517.068 587.013 526.872 585.823 536.128 582.684C545.383 579.545 553.889 574.525 561.11 567.939C576.47 554.309 584.77 537.259 586.2 516.739C587.026 506.955 585.832 497.105 582.69 487.802C579.549 478.498 574.528 469.94 567.94 462.659C561.606 455.186 553.779 449.12 544.961 444.851C536.144 440.582 526.531 438.203 516.74 437.869C506.96 437.046 497.116 438.24 487.817 441.378C478.518 444.516 469.962 449.53 462.68 456.109C455.205 462.445 449.136 470.271 444.86 479.088C440.584 487.905 438.197 497.517 437.85 507.309C437.019 517.073 438.187 526.905 441.282 536.203C444.377 545.501 449.334 554.07 455.85 561.389C469.29 576.849 486.44 585.169 507.33 586.179Z" fill="white"/>
</g>
<defs>
<clipPath id="clip0_3_617">
<rect width="1024" height="1024" fill="white"/>
</clipPath>
</defs>
</svg>
